frontend/src/assets/icons/mail-04.svg

<svg width="24" height="24" viewBox="0 0 24 24" fill="none" xmlns="http://www.w3.org/2000/svg">
<g id="mail-04">
<path id="Icon" d="M13.744 2.63346L21.272 7.52667C21.538 7.69957 21.671 7.78602 21.7674 7.90134C21.8527 8.00342 21.9167 8.12149 21.9558 8.24865C22 8.39229 22 8.55092 22 8.86818V16.1999C22 17.88 22 18.7201 21.673 19.3619C21.3854 19.9263 20.9265 20.3853 20.362 20.6729C19.7202 20.9999 18.8802 20.9999 17.2 20.9999H6.8C5.11984 20.9999 4.27976 20.9999 3.63803 20.6729C3.07354 20.3853 2.6146 19.9263 2.32698 19.3619C2 18.7201 2 17.88 2 16.1999V8.86818C2 8.55092 2 8.39229 2.04417 8.24865C2.08327 8.12149 2.14735 8.00342 2.23265 7.90134C2.32901 7.78602 2.46201 7.69957 2.72802 7.52667L10.256 2.63346M13.744 2.63346C13.1127 2.22315 12.7971 2.01799 12.457 1.93817C12.1564 1.86761 11.8436 1.86761 11.543 1.93817C11.2029 2.01799 10.8873 2.22315 10.256 2.63346M13.744 2.63346L20.9681 7.32913C21.312 7.55268 21.484 7.66445 21.5435 7.8062C21.5956 7.93008 21.5956 8.06969 21.5435 8.19356C21.484 8.33531 21.312 8.44709 20.9681 8.67064L13.744 13.3663C13.1127 13.7766 12.7971 13.9818 12.457 14.0616C12.1564 14.1321 11.8436 14.1321 11.543 14.0616C11.2029 13.9818 10.8873 13.7766 10.256 13.3663L3.03193 8.67064C2.68801 8.44709 2.51604 8.33531 2.45649 8.19356C2.40444 8.06969 2.40444 7.93008 2.45649 7.8062C2.51604 7.66445 2.68801 7.55268 3.03193 7.32913L10.256 2.63346" stroke="black" stroke-width="2" stroke-linecap="round" stroke-linejoin="round"/>
</g>
</svg>

<svg xmlns="http://www.w3.org/2000/svg" width="24" height="24" fill="none" viewBox="0 0 24 24">
  <path stroke="#000" stroke-linecap="round" stroke-linejoin="round" stroke-width="2" d="m13.744 2.633 7.528 4.894c.266.173.399.259.495.374a1 1 0 0 1 .189.348c.044.143.044.302.044.62v7.33c0 1.681 0 2.521-.327 3.163a3 3 0 0 1-1.311 1.31C19.72 21 18.88 21 17.2 21H6.8c-1.68 0-2.52 0-3.162-.327a3 3 0 0 1-1.311-1.311C2 18.72 2 17.88 2 16.2V8.868c0-.317 0-.476.044-.62a1 1 0 0 1 .189-.347c.096-.115.229-.201.495-.374l7.528-4.894m3.488 0c-.631-.41-.947-.615-1.287-.695a2 2 0 0 0-.914 0c-.34.08-.656.285-1.287.695m3.488 0 7.224 4.696c.344.224.516.335.576.477a.5.5 0 0 1 0 .388c-.06.141-.232.253-.576.477l-7.224 4.695c-.631.41-.947.616-1.287.696-.3.07-.613.07-.914 0-.34-.08-.656-.285-1.287-.696L3.032 8.671c-.344-.224-.516-.336-.576-.477a.5.5 0 0 1 0-.388c.06-.142.232-.253.576-.477l7.224-4.696"/>
</svg>
